packages/product-components/src/images/networks/op.svg

<svg width="32" height="32" viewBox="0 0 32 32" fill="none" xmlns="http://www.w3.org/2000/svg">
<style>
@media (prefers-color-scheme: dark) {
    .background {
        fill: #F6F6F6;
    }
    .foreground {
        fill: #1F1F1F;
    }
}
</style>
<path class="background" d="M0 8C0 3.58172 3.58172 0 8 0H24C28.4183 0 32 3.58172 32 8V24C32 28.4183 28.4183 32 24 32H8C3.58172 32 0 28.4183 0 24V8Z" fill="#1F1F1F"/>
<path class="foreground" d="M8.73832 23C7.34579 23 6.20561 22.6632 5.31776 21.9896C4.43925 21.3064 4 20.3249 4 19.0644C4 18.795 4.02804 18.4774 4.08411 18.0925C4.23364 17.2265 4.4486 16.1873 4.72897 14.9652C5.52336 11.6551 7.57944 10 10.8879 10C11.785 10 12.5981 10.154 13.3084 10.4715C14.0187 10.7698 14.5794 11.2317 14.9907 11.8475C15.4019 12.4537 15.6075 13.1754 15.6075 14.0126C15.6075 14.2628 15.5794 14.5803 15.5234 14.9652C15.3458 16.0333 15.1402 17.0822 14.8878 18.0925C14.4766 19.738 13.7757 20.9793 12.7664 21.7972C11.7664 22.6055 10.4206 23 8.73832 23ZM8.99065 20.4019C9.64486 20.4019 10.1963 20.1999 10.6542 19.8053C11.1215 19.4108 11.4579 18.8046 11.6542 17.9771C11.9252 16.8416 12.1308 15.8601 12.271 15.0133C12.3178 14.7631 12.3458 14.5033 12.3458 14.2339C12.3458 13.1369 11.7944 12.5885 10.6822 12.5885C10.028 12.5885 9.46729 12.7905 9 13.185C8.54206 13.5796 8.21495 14.1858 8.01869 15.0133C7.80374 15.8216 7.59813 16.8031 7.38318 17.9771C7.33645 18.2176 7.30841 18.4678 7.30841 18.7372C7.29907 19.8534 7.86916 20.4019 8.99065 20.4019ZM16.4206 22.8268C16.2897 22.8268 16.1963 22.7883 16.1215 22.7017C16.0654 22.6055 16.0467 22.4996 16.0654 22.3745L18.486 10.6351C18.5047 10.5004 18.5701 10.3945 18.6822 10.3079C18.785 10.2213 18.8972 10.1828 19.0187 10.1828H23.6822C24.9813 10.1828 26.0187 10.4619 26.8037 11.0104C27.5981 11.5685 28 12.3671 28 13.416C28 13.7143 27.9626 14.0318 27.8972 14.359C27.6075 15.7446 27.0187 16.7646 26.1215 17.4286C25.243 18.0925 24.0374 18.4197 22.5047 18.4197H20.1402L19.3364 22.3745C19.3084 22.5093 19.2523 22.6151 19.1402 22.7017C19.0374 22.7883 18.9252 22.8268 18.8037 22.8268H16.4206ZM22.6262 15.9275C23.1215 15.9275 23.5421 15.7927 23.9065 15.5137C24.2804 15.2346 24.5234 14.8401 24.6449 14.3205C24.6822 14.1184 24.7009 13.9356 24.7009 13.7816C24.7009 13.4352 24.5981 13.1658 24.4019 12.983C24.2056 12.7905 23.8598 12.6943 23.3832 12.6943H21.2804L20.6168 15.9275H22.6262Z" fill="#F6F6F6"/>
</svg>

<svg xmlns="http://www.w3.org/2000/svg" width="32" height="32" viewBox="0 0 32 32" fill="none">
    <path class="bg" fill="#1F1F1F" d="M0 8a8 8 0 0 1 8-8h16a8 8 0 0 1 8 8v16a8 8 0 0 1-8 8H8a8 8 0 0 1-8-8z"/>
    <path class="fg" fill="#F6F6F6" d="M8.738 23q-2.088 0-3.42-1.01C4.439 21.306 4 20.325 4 19.064c0-.269.028-.587.084-.971.15-.866.365-1.906.645-3.128.794-3.31 2.85-4.965 6.159-4.965.897 0 1.71.154 2.42.472a3.7 3.7 0 0 1 1.683 1.376q.616.909.617 2.165 0 .375-.085.952a40 40 0 0 1-.635 3.128c-.411 1.645-1.112 2.886-2.122 3.704-1 .808-2.345 1.203-4.028 1.203m.253-2.598c.654 0 1.205-.202 1.663-.597.467-.394.804-1 1-1.828.271-1.135.477-2.117.617-2.964.047-.25.075-.51.075-.78q.002-1.645-1.664-1.645c-.654 0-1.215.203-1.682.597-.458.395-.785 1-.981 1.828-.215.809-.42 1.79-.636 2.964-.047.24-.075.49-.075.76-.009 1.116.561 1.665 1.683 1.665m7.43 2.425a.36.36 0 0 1-.3-.125c-.056-.097-.074-.202-.056-.328l2.421-11.739a.48.48 0 0 1 .196-.327.5.5 0 0 1 .337-.125h4.663c1.3 0 2.337.279 3.122.827.794.559 1.196 1.357 1.196 2.406 0 .298-.037.616-.103.943-.29 1.386-.878 2.406-1.775 3.07-.879.664-2.085.99-3.617.99H20.14l-.804 3.956a.52.52 0 0 1-.196.327.5.5 0 0 1-.336.125zm6.205-6.9c.495 0 .916-.134 1.28-.413.374-.28.617-.674.739-1.194q.056-.305.056-.538c0-.347-.103-.616-.3-.799-.195-.193-.541-.289-1.018-.289H21.28l-.663 3.233z"/>
</svg>
